modules/themify-icons/icons/layout-column4.svg

<?xml version="1.0" encoding="utf-8"?>
<!-- Generated by IcoMoon.io -->
<!DOCTYPE svg PUBLIC "-//W3C//DTD SVG 1.1//EN" "http://www.w3.org/Graphics/SVG/1.1/DTD/svg11.dtd">
<svg version="1.1" xmlns="http://www.w3.org/2000/svg" xmlns:xlink="http://www.w3.org/1999/xlink" width="17" height="17" viewBox="0 0 17 17">
<g>
</g>
	<path d="M1 17h3v-17h-3v17zM2 1h1v15h-1v-15zM5 17h3v-17h-3v17zM6 1h1v15h-1v-15zM9 17h3v-17h-3v17zM10 1h1v15h-1v-15zM13 0v17h3v-17h-3zM15 16h-1v-15h1v15z" fill="#000000" />
</svg>

<svg xmlns="http://www.w3.org/2000/svg" width="17" height="17" viewBox="0 0 17 17"><path d="M1 17h3V0H1v17zM2 1h1v15H2V1zm3 16h3V0H5v17zM6 1h1v15H6V1zm3 16h3V0H9v17zm1-16h1v15h-1V1zm3-1v17h3V0h-3zm2 16h-1V1h1v15z"/></svg>
